src/assets/svg/next.svg

<svg aria-hidden="true" focusable="false" data-prefix="fas" data-icon="step-forward" role="img" xmlns="http://www.w3.org/2000/svg" viewBox="0 0 448 512" class="svg-inline--fa fa-step-forward fa-w-14 fa-3x"><path fill="currentColor" d="M384 44v424c0 6.6-5.4 12-12 12h-48c-6.6 0-12-5.4-12-12V291.6l-195.5 181C95.9 489.7 64 475.4 64 448V64c0-27.4 31.9-41.7 52.5-24.6L312 219.3V44c0-6.6 5.4-12 12-12h48c6.6 0 12 5.4 12 12z" class=""></path></svg>

<?xml version="1.0" encoding="UTF-8" standalone="no"?><!-- Generator: Gravit.io --><svg xmlns="http://www.w3.org/2000/svg" xmlns:xlink="http://www.w3.org/1999/xlink" style="isolation:isolate" viewBox="0 0 448 512" width="448pt" height="512pt"><defs><clipPath id="_clipPath_O8CQmmYMlSyxe6EPykfpLFRWl6iarB1G"><rect width="448" height="512"/></clipPath></defs><g clip-path="url(#_clipPath_O8CQmmYMlSyxe6EPykfpLFRWl6iarB1G)"><path d=" M 384 44 L 384 468 C 384 474.6 378.6 480 372 480 L 324 480 C 317.4 480 312 474.6 312 468 L 312 291.6 L 116.5 472.6 C 95.9 489.7 64 475.4 64 448 L 64 64 C 64 36.6 95.9 22.3 116.5 39.4 L 312 219.3 L 312 44 C 312 37.4 317.4 32 324 32 L 372 32 C 378.6 32 384 37.4 384 44 Z " fill="rgb(255,255,255)"/></g></svg>
